X:1
T:Forest Green
T:Forest Green
T:Public Domain, Courtesy of the Cyber Hymnal (http://www.cyberhymnal.org)
T:Public Domain, Courtesy of the Cyber Hymnal (http://www.cyberhymnal.org)
Z:Public Domain, Courtesy of the Cyber Hymnal (http://www.cyberhymnal.org)
%%score { ( 1 2 ) ( 3 4 ) }
L:1/8
Q:1/4=115
M:1/4
K:F
V:1 treble nm="P1"
V:2 treble 
V:3 bass nm="P2"
V:4 bass 
V:1
"^Editor: John Henry Fowler""^( Revision: 11-20-2007 )" C2 |[M:4/4] F2 F2 F2 G2 | (AG) (AB) c2 A2 | %3
 B2"^( 1906 )" (AF) G2 G2 | F6 C2 |"^Ralph Vaughan Williams" F2 F2"^( 1872 - 1958 )" F2 G2 | %6
 (AG) (AB) c2 A2 | B2 (AF) G2 G2 | F6 (FA) | c3 d (cB) (AG) | (FG) (AB) c2 C2 | F2 A2 G2 F2 | %12
 C6 C2 | F2 F2 F2 G2 | (AG) (AB) c2 A2 | B2 (AF) G2 G2 |[M:3/4] F6 |] %17
V:2
 C2 |[M:4/4] C2 D2 C2 (DE) | F2 F2 E2 D2 | D2 F2 F2 E2 | F6 C2 | C2 D2 C2 (DE) | F2 F2 E2 D2 | %7
 D2 F2 F2 E2 | F6 (FA) | E3 D E2 C2 | C2 F2 E2 C2 | C2 C2 B,2 (A,B,) | C6 C2 | C2 D2 C2 (DE) | %14
 F2 F2 E2 D2 | D2 F2 F2 E2 |[M:3/4] F6 |] %17
V:3
 C,2 |[M:4/4] A,2 B,2 C2 B,2 | C2 F,2 G,2 F,2 | B,2 C2 D2 (CB,) | A,6 C,2 | A,2 B,2 C2 B,2 | %6
w: ~-||||||
 C2 F,2 G,2 F,2 | B,2 C2 D2 (B,A,) | A,6 A,2 | A,3 F, C2 (CB,) | A,2 F,2 G,2 E,2 | %11
w: |||||
 F,2 F,2 (D,E,) F,2 | E,6 (F,G,) | A,2 B,2 C2 B,2 | C2 F,2 G,2 F,2 | B,2 (CA,) C2 (B,A,) | %16
w: |||||
[M:3/4] A,6 |] %17
w: |
V:4
 C,2 |[M:4/4] F,2 B,2 A,2 G,2 | F,2 D,2 C,2 D,2 | G,,2 A,,2 B,,2 C,2 | F,6 C,2 | F,2 B,2 A,2 G,2 | %6
 F,2 D,2 C,2 D,2 | G,,2 A,,2 B,,2 C,2 | F,6 D,2 | A,,3 B,, C,2 (D,E,) | F,2 D,2 C,2 (C,B,,) | %11
 A,,2 F,,2 B,,2 D,2 | C,6 (D,E,) | F,2 G,2 A,2 G,2 | F,2 D,2 C,2 D,2 | G,,2 (A,,D,) C,2 C,2 | %16
[M:3/4] F,6 |] %17

